src/components/global-img/info.svg

<svg width="20" height="21" viewBox="0 0 20 21" fill="none" xmlns="http://www.w3.org/2000/svg">
<circle cx="10" cy="10.5576" r="9.5" stroke="#1F2041" stroke-opacity="0.25"/>
<path d="M9.25463 8.10162H11.1266V14.5576H9.25463V8.10162ZM10.1906 7.20162C9.84663 7.20162 9.56663 7.10162 9.35063 6.90162C9.13463 6.70162 9.02663 6.45362 9.02663 6.15762C9.02663 5.86162 9.13463 5.61362 9.35063 5.41362C9.56663 5.21362 9.84663 5.11362 10.1906 5.11362C10.5346 5.11362 10.8146 5.20962 11.0306 5.40162C11.2466 5.59362 11.3546 5.83362 11.3546 6.12162C11.3546 6.43362 11.2466 6.69362 11.0306 6.90162C10.8146 7.10162 10.5346 7.20162 10.1906 7.20162Z" fill="#1F2041" fill-opacity="0.25"/>
</svg>

<svg width="20" height="21" fill="none" xmlns="http://www.w3.org/2000/svg"><circle cx="10" cy="10.558" r="9.5" stroke="#1F2041" stroke-opacity=".25"/><path d="M9.255 8.102h1.872v6.456H9.255V8.102Zm.936-.9c-.344 0-.624-.1-.84-.3a.973.973 0 0 1-.324-.744c0-.296.108-.544.324-.744.216-.2.496-.3.84-.3s.624.096.84.288a.923.923 0 0 1 .324.72c0 .312-.108.572-.324.78-.216.2-.496.3-.84.3Z" fill="#1F2041" fill-opacity=".25"/></svg>
